austria/municipalities/32104.svg

<?xml version="1.0" encoding="UTF-8"?>
<!DOCTYPE svg PUBLIC "-//W3C//DTD SVG 1.1//EN" "http://www.w3.org/Graphics/SVG/1.1/DTD/svg11.dtd">
<svg xmlns="http://www.w3.org/2000/svg" version="1.1" width="229px" height="272px" style="shape-rendering:geometricPrecision; text-rendering:geometricPrecision; image-rendering:optimizeQuality; fill-rule:evenodd; clip-rule:evenodd" xmlns:xlink="http://www.w3.org/1999/xlink">
<g><path style="opacity:1" fill="#fefefe" d="M -0.5,-0.5 C 75.8333,-0.5 152.167,-0.5 228.5,-0.5C 228.5,90.1667 228.5,180.833 228.5,271.5C 152.167,271.5 75.8333,271.5 -0.5,271.5C -0.5,180.833 -0.5,90.1667 -0.5,-0.5 Z"/></g>
<g><path style="opacity:1" fill="#000000" d="M 111.5,6.5 C 147.5,6.5 183.5,6.5 219.5,6.5C 219.832,57.6694 219.499,108.669 218.5,159.5C 218.5,150.5 218.5,141.5 218.5,132.5C 206.833,132.5 195.167,132.5 183.5,132.5C 183.167,132.5 182.833,132.5 182.5,132.5C 170.833,132.5 159.167,132.5 147.5,132.5C 147.167,132.5 146.833,132.5 146.5,132.5C 134.833,132.5 123.167,132.5 111.5,132.5C 111.5,118.833 111.5,105.167 111.5,91.5C 111.5,91.1667 111.5,90.8333 111.5,90.5C 111.5,90.1667 111.5,89.8333 111.5,89.5C 111.5,76.1667 111.5,62.8333 111.5,49.5C 111.5,49.1667 111.5,48.8333 111.5,48.5C 111.5,34.5 111.5,20.5 111.5,6.5 Z"/></g>
<g><path style="opacity:1" fill="#1a0401" d="M 41.5,6.5 C 41.5,6.83333 41.5,7.16667 41.5,7.5C 41.1667,7.5 40.8333,7.5 40.5,7.5C 40.1667,7.5 39.8333,7.5 39.5,7.5C 27.8333,7.5 16.1667,7.5 4.5,7.5C 4.5,21.1667 4.5,34.8333 4.5,48.5C 4.5,48.8333 4.5,49.1667 4.5,49.5C 4.5,63.1667 4.5,76.8333 4.5,90.5C 4.16667,90.5 3.83333,90.5 3.5,90.5C 3.5,62.5 3.5,34.5 3.5,6.5C 16.1667,6.5 28.8333,6.5 41.5,6.5 Z"/></g>
<g><path style="opacity:1" fill="#c0bfbf" d="M 39.5,7.5 C 39.5,21.1667 39.5,34.8333 39.5,48.5C 27.8333,48.5 16.1667,48.5 4.5,48.5C 4.5,34.8333 4.5,21.1667 4.5,7.5C 16.1667,7.5 27.8333,7.5 39.5,7.5 Z"/></g>
<g><path style="opacity:1" fill="#bfbfc0" d="M 110.5,6.5 C 110.833,6.5 111.167,6.5 111.5,6.5C 111.5,20.5 111.5,34.5 111.5,48.5C 99.8333,48.5 88.1667,48.5 76.5,48.5C 76.5,34.8333 76.5,21.1667 76.5,7.5C 88.0123,7.8281 99.3456,7.49477 110.5,6.5 Z"/></g>
<g><path style="opacity:1" fill="#320402" d="M 41.5,7.5 C 41.5,7.16667 41.5,6.83333 41.5,6.5C 64.5,6.5 87.5,6.5 110.5,6.5C 99.3456,7.49477 88.0123,7.8281 76.5,7.5C 76.5,21.1667 76.5,34.8333 76.5,48.5C 88.1667,48.5 99.8333,48.5 111.5,48.5C 111.5,48.8333 111.5,49.1667 111.5,49.5C 100.5,49.5 89.5,49.5 78.5,49.5C 76.5181,62.7924 75.8514,76.4591 76.5,90.5C 88.1667,90.5 99.8333,90.5 111.5,90.5C 111.5,90.8333 111.5,91.1667 111.5,91.5C 99.8333,91.5 88.1667,91.5 76.5,91.5C 76.5,105.167 76.5,118.833 76.5,132.5C 76.1667,132.5 75.8333,132.5 75.5,132.5C 75.5,132.167 75.5,131.833 75.5,131.5C 75.5,118.167 75.5,104.833 75.5,91.5C 64.1667,91.5 52.8333,91.5 41.5,91.5C 40.5043,104.99 40.171,118.656 40.5,132.5C 40.1667,132.5 39.8333,132.5 39.5,132.5C 39.5,118.833 39.5,105.167 39.5,91.5C 27.8333,91.5 16.1667,91.5 4.5,91.5C 4.5,91.1667 4.5,90.8333 4.5,90.5C 16.3453,90.8283 28.012,90.4949 39.5,89.5C 39.5,76.1667 39.5,62.8333 39.5,49.5C 28.5,49.5 17.5,49.5 6.5,49.5C 5.83333,49.5 5.16667,49.5 4.5,49.5C 4.5,49.1667 4.5,48.8333 4.5,48.5C 16.1667,48.5 27.8333,48.5 39.5,48.5C 39.5,34.8333 39.5,21.1667 39.5,7.5C 39.8333,7.5 40.1667,7.5 40.5,7.5C 40.5,21.1667 40.5,34.8333 40.5,48.5C 52.3453,48.8283 64.012,48.4949 75.5,47.5C 75.5,34.1667 75.5,20.8333 75.5,7.5C 64.5,7.5 53.5,7.5 42.5,7.5C 42.1667,7.5 41.8333,7.5 41.5,7.5 Z"/></g>
<g><path style="opacity:1" fill="#b91d1f" d="M 40.5,7.5 C 40.8333,7.5 41.1667,7.5 41.5,7.5C 41.8333,7.5 42.1667,7.5 42.5,7.5C 42.5,7.83333 42.5,8.16667 42.5,8.5C 41.5045,21.3226 41.1712,34.3226 41.5,47.5C 52.8333,47.5 64.1667,47.5 75.5,47.5C 64.012,48.4949 52.3453,48.8283 40.5,48.5C 40.5,34.8333 40.5,21.1667 40.5,7.5 Z"/></g>
<g><path style="opacity:1" fill="#e00e0d" d="M 42.5,7.5 C 53.5,7.5 64.5,7.5 75.5,7.5C 75.5,20.8333 75.5,34.1667 75.5,47.5C 64.1667,47.5 52.8333,47.5 41.5,47.5C 41.1712,34.3226 41.5045,21.3226 42.5,8.5C 42.5,8.16667 42.5,7.83333 42.5,7.5 Z"/></g>
<g><path style="opacity:1" fill="#fc0000" d="M 42.5,8.5 C 53.1667,8.5 63.8333,8.5 74.5,8.5C 74.5,21.1667 74.5,33.8333 74.5,46.5C 63.8333,46.5 53.1667,46.5 42.5,46.5C 42.5,33.8333 42.5,21.1667 42.5,8.5 Z"/></g>
<g><path style="opacity:1" fill="#fb0101" d="M 6.5,50.5 C 17.1667,50.5 27.8333,50.5 38.5,50.5C 38.5,63.1667 38.5,75.8333 38.5,88.5C 27.8333,88.5 17.1667,88.5 6.5,88.5C 5.16667,75.8333 5.16667,63.1667 6.5,50.5 Z"/></g>
<g><path style="opacity:1" fill="#d21311" d="M 6.5,50.5 C 6.5,50.1667 6.5,49.8333 6.5,49.5C 17.5,49.5 28.5,49.5 39.5,49.5C 39.5,62.8333 39.5,76.1667 39.5,89.5C 28.3206,89.8279 17.3206,89.4946 6.5,88.5C 17.1667,88.5 27.8333,88.5 38.5,88.5C 38.5,75.8333 38.5,63.1667 38.5,50.5C 27.8333,50.5 17.1667,50.5 6.5,50.5 Z"/></g>
<g><path style="opacity:1" fill="#c1bfbe" d="M 40.5,49.5 C 52.1667,49.5 63.8333,49.5 75.5,49.5C 75.5,63.1667 75.5,76.8333 75.5,90.5C 63.8333,90.5 52.1667,90.5 40.5,90.5C 40.5,76.8333 40.5,63.1667 40.5,49.5 Z"/></g>
<g><path style="opacity:1" fill="#b41e1c" d="M 4.5,49.5 C 5.16667,49.5 5.83333,49.5 6.5,49.5C 6.5,49.8333 6.5,50.1667 6.5,50.5C 5.16667,63.1667 5.16667,75.8333 6.5,88.5C 17.3206,89.4946 28.3206,89.8279 39.5,89.5C 28.012,90.4949 16.3453,90.8283 4.5,90.5C 4.5,76.8333 4.5,63.1667 4.5,49.5 Z"/></g>
<g><path style="opacity:1" fill="#dd0f0f" d="M 78.5,49.5 C 89.5,49.5 100.5,49.5 111.5,49.5C 111.5,62.8333 111.5,76.1667 111.5,89.5C 100.167,89.5 88.8333,89.5 77.5,89.5C 77.1712,76.3226 77.5045,63.3226 78.5,50.5C 78.5,50.1667 78.5,49.8333 78.5,49.5 Z"/></g>
<g><path style="opacity:1" fill="#fc0000" d="M 78.5,50.5 C 89.1667,50.5 99.8333,50.5 110.5,50.5C 110.5,63.1667 110.5,75.8333 110.5,88.5C 100.167,88.5 89.8333,88.5 79.5,88.5C 78.5582,75.8704 78.2249,63.2037 78.5,50.5 Z"/></g>
<g><path style="opacity:1" fill="#b41d20" d="M 78.5,49.5 C 78.5,49.8333 78.5,50.1667 78.5,50.5C 77.5045,63.3226 77.1712,76.3226 77.5,89.5C 88.8333,89.5 100.167,89.5 111.5,89.5C 111.5,89.8333 111.5,90.1667 111.5,90.5C 99.8333,90.5 88.1667,90.5 76.5,90.5C 75.8514,76.4591 76.5181,62.7924 78.5,49.5 Z"/></g>
<g><path style="opacity:1" fill="#c1bfbf" d="M 4.5,91.5 C 16.1667,91.5 27.8333,91.5 39.5,91.5C 39.5,105.167 39.5,118.833 39.5,132.5C 27.8333,132.5 16.1667,132.5 4.5,132.5C 4.5,118.833 4.5,105.167 4.5,91.5 Z"/></g>
<g><path style="opacity:1" fill="#c0bfbf" d="M 111.5,91.5 C 111.5,105.167 111.5,118.833 111.5,132.5C 99.8333,132.5 88.1667,132.5 76.5,132.5C 76.5,118.833 76.5,105.167 76.5,91.5C 88.1667,91.5 99.8333,91.5 111.5,91.5 Z"/></g>
<g><path style="opacity:1" fill="#de0e0f" d="M 41.5,91.5 C 52.8333,91.5 64.1667,91.5 75.5,91.5C 75.5,104.833 75.5,118.167 75.5,131.5C 64.1667,131.5 52.8333,131.5 41.5,131.5C 41.5,118.167 41.5,104.833 41.5,91.5 Z"/></g>
<g><path style="opacity:1" fill="#fc0000" d="M 42.5,92.5 C 53.1667,92.5 63.8333,92.5 74.5,92.5C 74.5,105.167 74.5,117.833 74.5,130.5C 63.8333,130.5 53.1667,130.5 42.5,130.5C 42.5,117.833 42.5,105.167 42.5,92.5 Z"/></g>
<g><path style="opacity:1" fill="#bb1c1d" d="M 41.5,91.5 C 41.5,104.833 41.5,118.167 41.5,131.5C 52.8333,131.5 64.1667,131.5 75.5,131.5C 75.5,131.833 75.5,132.167 75.5,132.5C 63.8333,132.5 52.1667,132.5 40.5,132.5C 40.171,118.656 40.5043,104.99 41.5,91.5 Z"/></g>
<g><path style="opacity:1" fill="#010000" d="M 3.5,90.5 C 3.83333,90.5 4.16667,90.5 4.5,90.5C 4.5,90.8333 4.5,91.1667 4.5,91.5C 4.5,105.167 4.5,118.833 4.5,132.5C 16.1667,132.5 27.8333,132.5 39.5,132.5C 39.8333,132.5 40.1667,132.5 40.5,132.5C 52.1667,132.5 63.8333,132.5 75.5,132.5C 75.8333,132.5 76.1667,132.5 76.5,132.5C 88.1667,132.5 99.8333,132.5 111.5,132.5C 111.5,146.167 111.5,159.833 111.5,173.5C 111.5,173.833 111.5,174.167 111.5,174.5C 111.5,174.833 111.5,175.167 111.5,175.5C 111.5,188.833 111.5,202.167 111.5,215.5C 111.5,215.833 111.5,216.167 111.5,216.5C 111.5,231.5 111.5,246.5 111.5,261.5C 114.167,261.5 116.833,261.5 119.5,261.5C 95.7643,263.98 74.0976,258.147 54.5,244C 44.7449,236.916 35.5783,229.083 27,220.5C 14.6102,202.003 6.94351,181.67 4,159.5C 3.50004,136.502 3.33337,113.502 3.5,90.5 Z"/></g>
<g><path style="opacity:1" fill="#c0bfbf" d="M 111.5,132.5 C 123.167,132.5 134.833,132.5 146.5,132.5C 146.5,146.167 146.5,159.833 146.5,173.5C 134.833,173.5 123.167,173.5 111.5,173.5C 111.5,159.833 111.5,146.167 111.5,132.5 Z"/></g>
<g><path style="opacity:1" fill="#0d0b0a" d="M 218.5,159.5 C 218.702,161.95 218.369,164.283 217.5,166.5C 216.903,166.265 216.57,165.765 216.5,165C 216.954,162.97 217.62,161.137 218.5,159.5 Z"/></g>
<g><path style="opacity:1" fill="#c0bfbf" d="M 183.5,132.5 C 195.167,132.5 206.833,132.5 218.5,132.5C 218.5,141.5 218.5,150.5 218.5,159.5C 217.62,161.137 216.954,162.97 216.5,165C 216.57,165.765 216.903,166.265 217.5,166.5C 217.5,166.833 217.5,167.167 217.5,167.5C 215.621,168.895 214.621,170.895 214.5,173.5C 204.167,173.5 193.833,173.5 183.5,173.5C 183.5,159.833 183.5,146.167 183.5,132.5 Z"/></g>
<g><path style="opacity:1" fill="#090201" d="M 217.5,167.5 C 217.324,170.727 216.657,173.727 215.5,176.5C 215.672,175.508 215.338,174.842 214.5,174.5C 214.5,174.167 214.5,173.833 214.5,173.5C 214.621,170.895 215.621,168.895 217.5,167.5 Z"/></g>
<g><path style="opacity:1" fill="#b61d1f" d="M 111.5,175.5 C 111.5,175.167 111.5,174.833 111.5,174.5C 123.167,174.5 134.833,174.5 146.5,174.5C 146.829,188.344 146.496,202.01 145.5,215.5C 145.5,202.167 145.5,188.833 145.5,175.5C 134.167,175.5 122.833,175.5 111.5,175.5 Z"/></g>
<g><path style="opacity:1" fill="#330503" d="M 146.5,132.5 C 146.833,132.5 147.167,132.5 147.5,132.5C 147.5,133.167 147.5,133.833 147.5,134.5C 147.5,147.5 147.5,160.5 147.5,173.5C 158.833,173.5 170.167,173.5 181.5,173.5C 182.496,160.01 182.829,146.344 182.5,132.5C 182.833,132.5 183.167,132.5 183.5,132.5C 183.5,146.167 183.5,159.833 183.5,173.5C 193.833,173.5 204.167,173.5 214.5,173.5C 214.5,173.833 214.5,174.167 214.5,174.5C 204.167,174.5 193.833,174.5 183.5,174.5C 183.5,188.167 183.5,201.833 183.5,215.5C 188.179,215.666 192.845,215.499 197.5,215C 198.305,213.887 198.972,212.721 199.5,211.5C 200.272,210.306 201.272,209.306 202.5,208.5C 200.312,214.885 196.645,220.218 191.5,224.5C 192.919,221.9 194.585,219.4 196.5,217C 192.179,216.501 187.846,216.334 183.5,216.5C 182.897,221.619 183.564,226.285 185.5,230.5C 181.466,234.536 177.132,238.202 172.5,241.5C 175.187,237.817 178.187,234.483 181.5,231.5C 182.487,226.695 182.821,221.695 182.5,216.5C 170.833,216.5 159.167,216.5 147.5,216.5C 147.5,228.833 147.5,241.167 147.5,253.5C 148.833,253.5 150.167,253.5 151.5,253.5C 149.302,255.397 146.636,256.397 143.5,256.5C 144.469,255.691 145.302,254.691 146,253.5C 146.5,241.171 146.667,228.838 146.5,216.5C 134.833,216.5 123.167,216.5 111.5,216.5C 111.5,216.167 111.5,215.833 111.5,215.5C 122.833,215.5 134.167,215.5 145.5,215.5C 146.496,202.01 146.829,188.344 146.5,174.5C 134.833,174.5 123.167,174.5 111.5,174.5C 111.5,174.167 111.5,173.833 111.5,173.5C 123.167,173.5 134.833,173.5 146.5,173.5C 146.5,159.833 146.5,146.167 146.5,132.5 Z"/></g>
<g><path style="opacity:1" fill="#c0bfbf" d="M 147.5,174.5 C 159.167,174.5 170.833,174.5 182.5,174.5C 182.5,188.167 182.5,201.833 182.5,215.5C 170.833,215.5 159.167,215.5 147.5,215.5C 147.5,201.833 147.5,188.167 147.5,174.5 Z"/></g>
<g><path style="opacity:1" fill="#d01616" d="M 147.5,134.5 C 147.833,134.5 148.167,134.5 148.5,134.5C 148.5,147.167 148.5,159.833 148.5,172.5C 159.5,172.5 170.5,172.5 181.5,172.5C 181.5,172.833 181.5,173.167 181.5,173.5C 170.167,173.5 158.833,173.5 147.5,173.5C 147.5,160.5 147.5,147.5 147.5,134.5 Z"/></g>
<g><path style="opacity:1" fill="#bb1e22" d="M 147.5,132.5 C 159.167,132.5 170.833,132.5 182.5,132.5C 182.829,146.344 182.496,160.01 181.5,173.5C 181.5,173.167 181.5,172.833 181.5,172.5C 181.5,159.5 181.5,146.5 181.5,133.5C 170.321,133.172 159.321,133.505 148.5,134.5C 148.167,134.5 147.833,134.5 147.5,134.5C 147.5,133.833 147.5,133.167 147.5,132.5 Z"/></g>
<g><path style="opacity:1" fill="#fa0102" d="M 181.5,172.5 C 170.5,172.5 159.5,172.5 148.5,172.5C 148.5,159.833 148.5,147.167 148.5,134.5C 159.321,133.505 170.321,133.172 181.5,133.5C 181.5,146.5 181.5,159.5 181.5,172.5 Z"/></g>
<g><path style="opacity:1" fill="#c91717" d="M 214.5,174.5 C 214.737,175.791 214.404,176.791 213.5,177.5C 204.225,175.527 194.558,174.86 184.5,175.5C 184.5,188.5 184.5,201.5 184.5,214.5C 188.5,214.5 192.5,214.5 196.5,214.5C 196.5,213.5 196.5,212.5 196.5,211.5C 197.5,211.5 198.5,211.5 199.5,211.5C 198.972,212.721 198.305,213.887 197.5,215C 192.845,215.499 188.179,215.666 183.5,215.5C 183.5,201.833 183.5,188.167 183.5,174.5C 193.833,174.5 204.167,174.5 214.5,174.5 Z"/></g>
<g><path style="opacity:1" fill="#fa0201" d="M 213.5,177.5 C 212.624,182.463 210.957,187.13 208.5,191.5C 207.057,192.335 206.057,193.668 205.5,195.5C 204.284,199.599 202.784,203.599 201,207.5C 200.667,207.167 200.333,206.833 200,206.5C 199.506,208.134 199.34,209.801 199.5,211.5C 198.5,211.5 197.5,211.5 196.5,211.5C 196.5,212.5 196.5,213.5 196.5,214.5C 192.5,214.5 188.5,214.5 184.5,214.5C 184.5,201.5 184.5,188.5 184.5,175.5C 194.558,174.86 204.225,175.527 213.5,177.5 Z"/></g>
<g><path style="opacity:1" fill="#37100e" d="M 214.5,174.5 C 215.338,174.842 215.672,175.508 215.5,176.5C 212.848,187.141 208.848,197.141 203.5,206.5C 205.36,201.585 207.027,196.585 208.5,191.5C 210.957,187.13 212.624,182.463 213.5,177.5C 214.404,176.791 214.737,175.791 214.5,174.5 Z"/></g>
<g><path style="opacity:1" fill="#c01416" d="M 208.5,191.5 C 207.027,196.585 205.36,201.585 203.5,206.5C 203.672,207.492 203.338,208.158 202.5,208.5C 201.272,209.306 200.272,210.306 199.5,211.5C 199.34,209.801 199.506,208.134 200,206.5C 200.333,206.833 200.667,207.167 201,207.5C 202.784,203.599 204.284,199.599 205.5,195.5C 206.057,193.668 207.057,192.335 208.5,191.5 Z"/></g>
<g><path style="opacity:1" fill="#d71110" d="M 111.5,175.5 C 122.833,175.5 134.167,175.5 145.5,175.5C 145.5,188.833 145.5,202.167 145.5,215.5C 134.167,215.5 122.833,215.5 111.5,215.5C 111.5,202.167 111.5,188.833 111.5,175.5 Z"/></g>
<g><path style="opacity:1" fill="#fd0000" d="M 112.5,176.5 C 123.167,176.5 133.833,176.5 144.5,176.5C 144.5,189.167 144.5,201.833 144.5,214.5C 133.833,214.5 123.167,214.5 112.5,214.5C 112.5,201.833 112.5,189.167 112.5,176.5 Z"/></g>
<g><path style="opacity:1" fill="#f80202" d="M 181.5,231.5 C 178.187,234.483 175.187,237.817 172.5,241.5C 168.112,244.361 163.446,246.694 158.5,248.5C 154.92,248.466 151.92,249.8 149.5,252.5C 148.501,240.852 148.168,229.186 148.5,217.5C 159.5,217.5 170.5,217.5 181.5,217.5C 181.5,222.167 181.5,226.833 181.5,231.5 Z"/></g>
<g><path style="opacity:1" fill="#bcbcbc" d="M 111.5,216.5 C 123.167,216.5 134.833,216.5 146.5,216.5C 146.667,228.838 146.5,241.171 146,253.5C 145.302,254.691 144.469,255.691 143.5,256.5C 135.807,259.086 127.807,260.752 119.5,261.5C 116.833,261.5 114.167,261.5 111.5,261.5C 111.5,246.5 111.5,231.5 111.5,216.5 Z"/></g>
<g><path style="opacity:1" fill="#bdbabc" d="M 191.5,224.5 C 189.5,224.5 188.5,225.5 188.5,227.5C 187.833,228.833 186.833,229.833 185.5,230.5C 183.564,226.285 182.897,221.619 183.5,216.5C 187.846,216.334 192.179,216.501 196.5,217C 194.585,219.4 192.919,221.9 191.5,224.5 Z"/></g>
<g><path style="opacity:1" fill="#060302" d="M 191.5,224.5 C 190.833,225.833 189.833,226.833 188.5,227.5C 188.5,225.5 189.5,224.5 191.5,224.5 Z"/></g>
<g><path style="opacity:1" fill="#ca1918" d="M 181.5,231.5 C 181.5,226.833 181.5,222.167 181.5,217.5C 170.5,217.5 159.5,217.5 148.5,217.5C 148.168,229.186 148.501,240.852 149.5,252.5C 151.92,249.8 154.92,248.466 158.5,248.5C 155.991,249.921 153.657,251.588 151.5,253.5C 150.167,253.5 148.833,253.5 147.5,253.5C 147.5,241.167 147.5,228.833 147.5,216.5C 159.167,216.5 170.833,216.5 182.5,216.5C 182.821,221.695 182.487,226.695 181.5,231.5 Z"/></g>
<g><path style="opacity:1" fill="#331614" d="M 172.5,241.5 C 166.605,247.285 159.605,251.285 151.5,253.5C 153.657,251.588 155.991,249.921 158.5,248.5C 163.446,246.694 168.112,244.361 172.5,241.5 Z"/></g>
</svg>

<svg xmlns="http://www.w3.org/2000/svg" width="229" height="272" style="shape-rendering:geometricPrecision;text-rendering:geometricPrecision;image-rendering:optimizeQuality;fill-rule:evenodd;clip-rule:evenodd"><path style="opacity:1" fill="#fefefe" d="M-.5-.5h229v272H-.5V-.5z"/><path style="opacity:1" d="M111.5 6.5h108c.332 51.17-.001 102.169-1 153v-27h-107V6.5z"/><path style="opacity:1" fill="#1a0401" d="M41.5 6.5v1h-37v83h-1v-84h38z"/><path style="opacity:1" fill="#c0bfbf" d="M39.5 7.5v41h-35v-41h35z"/><path style="opacity:1" fill="#bfbfc0" d="M110.5 6.5h1v42h-35v-41c11.512.328 22.846-.005 34-1z"/><path style="opacity:1" fill="#320402" d="M41.5 7.5v-1h69c-11.154.995-22.488 1.328-34 1v41h35v1h-33c-1.982 13.292-2.649 26.96-2 41h35v1h-35v41h-1v-41h-34a420.86 420.86 0 0 0-1 41h-1v-41h-35v-1c11.845.328 23.512-.005 35-1v-40h-35v-1h35v-41h1v41c11.845.328 23.512-.005 35-1v-40h-34z"/><path style="opacity:1" fill="#b91d1f" d="M40.5 7.5h2v1a380.842 380.842 0 0 0-1 39h34c-11.488.995-23.155 1.328-35 1v-41z"/><path style="opacity:1" fill="#e00e0d" d="M42.5 7.5h33v40h-34a380.842 380.842 0 0 1 1-39v-1z"/><path style="opacity:1" fill="#fc0000" d="M42.5 8.5h32v38h-32v-38z"/><path style="opacity:1" fill="#fb0101" d="M6.5 50.5h32v38h-32a181 181 0 0 1 0-38z"/><path style="opacity:1" fill="#d21311" d="M6.5 50.5v-1h33v40c-11.18.328-22.18-.005-33-1h32v-38h-32z"/><path style="opacity:1" fill="#c1bfbe" d="M40.5 49.5h35v41h-35v-41z"/><path style="opacity:1" fill="#b41e1c" d="M4.5 49.5h2v1a181 181 0 0 0 0 38c10.82.995 21.82 1.328 33 1-11.488.995-23.155 1.328-35 1v-41z"/><path style="opacity:1" fill="#dd0f0f" d="M78.5 49.5h33v40h-34a380.842 380.842 0 0 1 1-39v-1z"/><path style="opacity:1" fill="#fc0000" d="M78.5 50.5h32v38h-31a395.546 395.546 0 0 1-1-38z"/><path style="opacity:1" fill="#b41d20" d="M78.5 49.5v1a380.842 380.842 0 0 0-1 39h34v1h-35c-.649-14.04.018-27.708 2-41z"/><path style="opacity:1" fill="#c1bfbf" d="M4.5 91.5h35v41h-35v-41z"/><path style="opacity:1" fill="#c0bfbf" d="M111.5 91.5v41h-35v-41h35z"/><path style="opacity:1" fill="#de0e0f" d="M41.5 91.5h34v40h-34v-40z"/><path style="opacity:1" fill="#fc0000" d="M42.5 92.5h32v38h-32v-38z"/><path style="opacity:1" fill="#bb1c1d" d="M41.5 91.5v40h34v1h-35a420.86 420.86 0 0 1 1-41z"/><path style="opacity:1" fill="#010000" d="M3.5 90.5h1v42h107v129h8c-23.736 2.48-45.402-3.353-65-17.5A229.424 229.424 0 0 1 27 220.5c-12.39-18.497-20.056-38.83-23-61-.5-22.998-.667-45.998-.5-69z"/><path style="opacity:1" fill="#c0bfbf" d="M111.5 132.5h35v41h-35v-41z"/><path style="opacity:1" fill="#0d0b0a" d="M218.5 159.5c.202 2.45-.131 4.783-1 7-.597-.235-.93-.735-1-1.5.454-2.03 1.12-3.863 2-5.5z"/><path style="opacity:1" fill="#c0bfbf" d="M183.5 132.5h35v27c-.88 1.637-1.546 3.47-2 5.5.07.765.403 1.265 1 1.5v1c-1.879 1.395-2.879 3.395-3 6h-31v-41z"/><path style="opacity:1" fill="#090201" d="M217.5 167.5c-.176 3.227-.843 6.227-2 9 .172-.992-.162-1.658-1-2v-1c.121-2.605 1.121-4.605 3-6z"/><path style="opacity:1" fill="#b61d1f" d="M111.5 175.5v-1h35a420.766 420.766 0 0 1-1 41v-40h-34z"/><path style="opacity:1" fill="#330503" d="M146.5 132.5h1v41h34a420.766 420.766 0 0 0 1-41h1v41h31v1h-31v41a98.432 98.432 0 0 0 14-.5 18.473 18.473 0 0 0 2-3.5 10.165 10.165 0 0 1 3-3c-2.188 6.385-5.855 11.718-11 16 1.419-2.6 3.085-5.1 5-7.5a84.902 84.902 0 0 0-13-.5c-.603 5.119.064 9.785 2 14a101.97 101.97 0 0 1-13 11 64.799 64.799 0 0 1 9-10c.987-4.805 1.321-9.805 1-15h-35v37h4c-2.198 1.897-4.864 2.897-8 3 .969-.809 1.802-1.809 2.5-3 .5-12.329.667-24.662.5-37h-35v-1h34a420.766 420.766 0 0 0 1-41h-35v-1h35v-41z"/><path style="opacity:1" fill="#c0bfbf" d="M147.5 174.5h35v41h-35v-41z"/><path style="opacity:1" fill="#d01616" d="M147.5 134.5h1v38h33v1h-34v-39z"/><path style="opacity:1" fill="#bb1e22" d="M147.5 132.5h35a420.766 420.766 0 0 1-1 41v-40c-11.179-.328-22.179.005-33 1h-1v-2z"/><path style="opacity:1" fill="#fa0102" d="M181.5 172.5h-33v-38c10.821-.995 21.821-1.328 33-1v39z"/><path style="opacity:1" fill="#c91717" d="M214.5 174.5c.237 1.291-.096 2.291-1 3-9.275-1.973-18.942-2.64-29-2v39h12v-3h3a18.473 18.473 0 0 1-2 3.5 98.432 98.432 0 0 1-14 .5v-41h31z"/><path style="opacity:1" fill="#fa0201" d="M213.5 177.5a43.95 43.95 0 0 1-5 14c-1.443.835-2.443 2.168-3 4a91.157 91.157 0 0 1-4.5 12l-1-1a12.93 12.93 0 0 0-.5 5h-3v3h-12v-39c10.058-.64 19.725.027 29 2z"/><path style="opacity:1" fill="#37100e" d="M214.5 174.5c.838.342 1.172 1.008 1 2-2.652 10.641-6.652 20.641-12 30a198.067 198.067 0 0 0 5-15 43.95 43.95 0 0 0 5-14c.904-.709 1.237-1.709 1-3z"/><path style="opacity:1" fill="#c01416" d="M208.5 191.5a198.067 198.067 0 0 1-5 15c.172.992-.162 1.658-1 2a10.165 10.165 0 0 0-3 3 12.93 12.93 0 0 1 .5-5l1 1a91.157 91.157 0 0 0 4.5-12c.557-1.832 1.557-3.165 3-4z"/><path style="opacity:1" fill="#d71110" d="M111.5 175.5h34v40h-34v-40z"/><path style="opacity:1" fill="#fd0000" d="M112.5 176.5h32v38h-32v-38z"/><path style="opacity:1" fill="#f80202" d="M181.5 231.5a64.799 64.799 0 0 0-9 10 68.669 68.669 0 0 1-14 7c-3.58-.034-6.58 1.3-9 4a307.162 307.162 0 0 1-1-35h33v14z"/><path style="opacity:1" fill="#bcbcbc" d="M111.5 216.5h35c.167 12.338 0 24.671-.5 37-.698 1.191-1.531 2.191-2.5 3-7.693 2.586-15.693 4.252-24 5h-8v-45z"/><path style="opacity:1" fill="#bdbabc" d="M191.5 224.5c-2 0-3 1-3 3a6.547 6.547 0 0 1-3 3c-1.936-4.215-2.603-8.881-2-14a84.902 84.902 0 0 1 13 .5 51.816 51.816 0 0 0-5 7.5z"/><path style="opacity:1" fill="#060302" d="M191.5 224.5a6.547 6.547 0 0 1-3 3c0-2 1-3 3-3z"/><path style="opacity:1" fill="#ca1918" d="M181.5 231.5v-14h-33a307.162 307.162 0 0 0 1 35c2.42-2.7 5.42-4.034 9-4a40.943 40.943 0 0 0-7 5h-4v-37h35c.321 5.195-.013 10.195-1 15z"/><path style="opacity:1" fill="#331614" d="M172.5 241.5c-5.895 5.785-12.895 9.785-21 12a40.943 40.943 0 0 1 7-5 68.669 68.669 0 0 0 14-7z"/></svg>
